packages/kaspersky-hexa-ui-icons/src/iconsSVGs/24/CancelHostIsolation.svg

<svg width="24" height="24" viewBox="0 0 24 24" fill="none" xmlns="http://www.w3.org/2000/svg">
<path fill-rule="evenodd" clip-rule="evenodd" d="M11.2929 2.29289C11.6834 1.90237 12.3166 1.90237 12.7071 2.29289L16.4142 6H18C19.1046 6 20 6.89543 20 8V9H22C22.5523 9 23 9.44772 23 10V14C23 14.5523 22.5523 15 22 15H8.99999C8.4477 15 7.99999 14.5523 7.99999 14L7.99998 12C5.79085 12 3.99999 13.7909 4 16C4.00001 18.2091 5.79086 20 7.99998 20H14C14.5523 20 15 20.4477 15 21C15 21.5523 14.5523 22 14 22H7.99998C4.68629 22 2.00001 19.3137 2 16C1.99999 12.6863 4.68627 10 7.99998 10L7.99999 7C7.99999 6.44772 8.4477 6 8.99999 6H13.5858L11.2929 3.70711C10.9024 3.31658 10.9024 2.68342 11.2929 2.29289ZM9.99999 8V13H21V11H19C18.4477 11 18 10.5523 18 10V8H9.99999Z" fill="black"/>
</svg>

<svg xmlns="http://www.w3.org/2000/svg" width="24" height="24" fill="none" viewBox="0 0 24 24"><path fill="#000" fill-rule="evenodd" d="M11.2929 2.2929c.3905-.3905 1.0237-.3905 1.4142 0L16.4142 6H18c1.1046 0 2 .8954 2 2v1h2c.5523 0 1 .4477 1 1v4c0 .5523-.4477 1-1 1H9c-.5523 0-1-.4477-1-1v-2c-2.2091 0-4 1.7909-4 4s1.7909 4 4 4h6c.5523 0 1 .4477 1 1s-.4477 1-1 1H8c-3.3137 0-6-2.6863-6-6s2.6863-6 6-6V7c0-.5523.4477-1 1-1h4.5858l-2.2929-2.2929c-.3905-.3905-.3905-1.0237 0-1.4142M9.9999 8v5H21v-2h-2c-.5523 0-1-.4477-1-1V8z" clip-rule="evenodd"/></svg>
